X:73
T:score162
L:1/8
Q:1/4=96
M:2/4
I:linebreak $
K:G
 B/c/ | dd dd | d>B GB/G/ | DD D/F/A/F/ | G2 z B/c/ | dd dd |$ d>B GB/G/ | DD D/F/A/F/ | G2 z2 |] %9
